X: 2191
T: Polonäs efter John Johansson
B: [[Notböcker/John Johanssons noter]] [[http://www.sormlandsmusikarkiv.se/noter/johansson_john/john_johansson.html|samling 2]], nr 42 (sida 58)
O: Södermanland
R: Polonäs
Z: Nils
M: 3/4
L: 1/16
K: D
a4 d'4 d2f2 | (ef)ec A2c2 e4 | e2f2 (ga)ge (fa)fd | (eg)ec d2A2 F2D2 |
a4 d'4 d2f2 | (ef)ec A2c2 e4 | e2f2 (gb)ge (fa)fd | (eg)ec d4 d4 ::
a2f2 f2a2 (ba)gf | g2e2 e2g2 (ag)fe | f2d2 d2f2 (gf)ed | e2d2 (cd)Bc A4 |
a2f2 f2a2 (ba)gf | g2e2 e2g2 (ag)fe | f2d2 d2f2 (gf)ed | (eg)ec d4 d4 :|
(:musicend:)
(:music:)
